X: 37248
T: Sixpenny Money
R: jig
M: 6/8
K: Dmajor
fAA fAA|BAG FEF|DED AFA|def e2 d|
fAA fAA|BAG FEF|DED AFA|def e2 d:|
|:fdf gfg|afd ecA|fdf gfg|afd e2 d|
fdf ~g3|faf edB|AFA AFA|def e2 d:|

